X: 23345
T: Leitrim
R: jig
M: 6/8
K: Gdorian
|:d|cAG G2^F|(D2G) G3|cAG G2G|f3 e2d|
cAG ~G2^F|(D2G) G3|F2G A2B|c3 d2:|
d|G2g g3|^faf g3|d2g g2e|f3 e2d|
G2g g3|^faf g3|aba a2g|f3 d2c|
d2g g3|^faf g3|d2g g2e|f3 f2g|
agf gfe|fed f2d|cAG G2G|f3 e2||

